usr/share/icons/biglinux-icons-material/scalable/mimetypes/application-x-executable.svg

<svg width="24" height="24" viewBox="0 0 24 24" fill="none" xmlns="http://www.w3.org/2000/svg">
<rect x="1" y="1" width="22" height="22" rx="6.6" fill="url(#paint0_radial_1_814)"/>
<path d="M10.2343 5L10.0787 6.84378C9.48875 7.06032 8.94024 7.37469 8.45663 7.77346L6.76576 6.98431L5 10.0157L6.53529 11.0722C6.48057 11.3785 6.45218 11.6889 6.45041 12C6.45063 12.3122 6.47768 12.6239 6.53126 12.9316L5 13.9843L6.76576 17.0157L8.45278 16.2286C8.93792 16.6257 9.48766 16.938 10.0785 17.1524L10.2343 19H13.7657L13.9213 17.1562C14.5113 16.9397 15.0598 16.6253 15.5434 16.2265L17.2342 17.0157L19 13.9843L17.4647 12.9278C17.5194 12.6215 17.5478 12.3111 17.5496 12C17.5494 11.6878 17.5223 11.3761 17.4688 11.0684L19 10.0157L17.2342 6.98433L15.5472 7.7714C15.0621 7.37437 14.5123 7.06199 13.9215 6.84762L13.7657 5.00004L10.2343 5ZM12 9.66662C12.6245 9.66662 13.2233 9.91245 13.6648 10.35C14.1064 10.7876 14.3544 11.3811 14.3544 11.9999C14.3544 12.6188 14.1064 13.2123 13.6648 13.6498C13.2233 14.0874 12.6245 14.3332 12 14.3332C11.3756 14.3332 10.7768 14.0874 10.3353 13.6498C9.89372 13.2123 9.64567 12.6188 9.64567 11.9999C9.64567 11.3811 9.89372 10.7876 10.3353 10.35C10.7768 9.91245 11.3756 9.66662 12 9.66662Z" fill="#555555"/>
<defs>
<radialGradient id="paint0_radial_1_814" cx="0" cy="0" r="1" gradientUnits="userSpaceOnUse" gradientTransform="translate(17.5 1) rotate(116.565) scale(24.5967)">
<stop stop-color="#F4F4F4"/>
<stop offset="1" stop-color="#BBBBBB"/>
</radialGradient>
</defs>
</svg>

<svg xmlns="http://www.w3.org/2000/svg" width="24" height="24" fill="none"><rect width="22" height="22" x="1" y="1" fill="url(#a)" rx="6.6"/><path fill="#555" d="m10.234 5-.155 1.844c-.59.216-1.139.53-1.622.93l-1.691-.79L5 10.016l1.535 1.056A5.452 5.452 0 0 0 6.45 12c0 .312.028.624.081.932L5 13.984l1.766 3.032 1.687-.787c.485.397 1.035.709 1.626.923L10.233 19h3.532l.155-1.844a5.56 5.56 0 0 0 1.622-.93l1.691.79L19 13.984l-1.535-1.056c.054-.307.083-.617.085-.928a5.46 5.46 0 0 0-.081-.932L19 10.016l-1.766-3.032-1.687.787a5.562 5.562 0 0 0-1.626-.923L13.767 5h-3.532ZM12 9.667c.624 0 1.223.245 1.665.683a2.323 2.323 0 0 1 0 3.3 2.365 2.365 0 0 1-1.665.683 2.365 2.365 0 0 1-1.665-.683 2.322 2.322 0 0 1 0-3.3A2.365 2.365 0 0 1 12 9.667Z"/><defs><radialGradient id="a" cx="0" cy="0" r="1" gradientTransform="rotate(116.565 8.441 5.908) scale(24.5967)" gradientUnits="userSpaceOnUse"><stop stop-color="#F4F4F4"/><stop offset="1" stop-color="#BBB"/></radialGradient></defs></svg>
